X: 11441
Q: "Lively."
M: 6/8
L: 1/8
K: D
g |\
fab afd | g2f e2d | fab afd | afb afd |
g>ab afd | g2f e2E | F/G/AA d2A | FDD D2g |\
fab afd | g2f e2d | fab afd | afb afd |\
gab afd | gaf eag | fdf geg | fdd d2 |]


